X:1
T:Going Home at Last
T:Going Home at Last
T:Edmund Simon Lorenz
T:W. Gossett, 1880
T:Public Domain Courtesy of the Cyber Hymnal™
C:Edmund Simon Lorenz
Z:Public Domain
Z:Courtesy of the Cyber Hymnal™
%%score ( 1 2 ) ( 3 4 )
L:1/8
Q:1/4=80
M:4/8
K:D
V:1 treble 
V:2 treble 
V:3 bass 
V:4 bass 
V:1
 [DF] | [DF][DF][DF]>[DF] | [DF] [DF]2 [DF] | [DA]>[DA][CG][DF] | [CE]3 [CE] | [CE][CE][CE]>[CE] | %6
w: 1.~The|ev- ening shades are|fall- ing, Our|sun is sink- ing|fast; The|Ho- ly One is|
w: 2.~The|road’s been long and|drear- y, The|toils came thick and|fast; In|bo- dy weak and|
w: 3.~We|now are near- ing|Hea- ven, And|soon shall be at|rest; Our|crowns will soon be|
w: 4.~Oh,|praise the Lord for-|ev- er! Our|sor- rows are all|past; We’ll|part no more, no|
 [CE] [EG]2 [GB] | [FA]<[FA][FA]>[EG] | [DF]3 z ||"^Refrain" [DF]<[FA][FA]>[GB] | [FA]3 z | %11
w: call- ing, We’re|go- ing home at|last.|||
w: wear- y, We’re|go- ing home at|last.|Go- ing home at|last!|
w: giv- en, We’re|go- ing home at|last.|||
w: ne- ver, We|are at home at|last.|||
 G<[GB][GB]>[Gc] | [GB]3 [GB] | [Gd]>[Gc][Gd]>[GB] | [GB] [FA]2 [Dd] | [DF]<[DF][CE]>[CE] | D3 |] %17
w: ||||||
w: Go- ing home at|last! The|march will soon be|o- ver; We’re|go- ing home at|last.|
w: ||||||
w: ||||||
V:2
 x | x4 | x4 | x4 | x4 | x4 | x4 | x4 | x4 || x4 | x4 | G/ x7/2 | x4 | x4 | x4 | x4 | D3 |] %17
V:3
 [D,A,] | [D,A,][D,A,][D,A,]>[D,A,] | [D,A,] [D,A,]2 [D,A,] | [F,A,]>[F,A,][E,A,][D,A,] | %4
 [A,,A,]3 [A,,A,] | [A,,A,][A,,A,][A,,A,]>[A,,A,] | [A,,A,] [A,,A,]2 [A,,A,] | %7
 [A,,A,]<[A,,A,][A,,A,]>[A,,A,] | [D,A,]3 z || [D,A,]<[D,D][D,D]>[D,D] | [D,D]3 z | %11
 [G,B,]<[G,D][G,D]>[G,E] | [G,D]3 [G,D] | [G,B,]>[G,A,][G,B,]>[G,D] | [D,D] [D,D]2 [F,A,] | %15
 A,<A,[A,,A,]>[A,,G,] | [D,F,]3 |] %17
V:4
 x | x4 | x4 | x4 | x4 | x4 | x4 | x4 | x4 || x4 | x4 | x4 | x4 | x4 | x4 | A,<A, x2 | x3 |] %17

